X:1
T:NIe musisz mówić nic
T:Nie musisz mówić nic
T:arr.Kurogitsune
T:Amicus
C:Amicus
%%score 1 2 3 4
L:1/8
Q:1/4=90
M:4/4
K:G
V:1 treble nm="Voce" snm="V."
V:2 treble nm="Voce" snm="V."
V:3 treble nm="Voce" snm="V."
V:4 treble nm="Voce" snm="V."
V:1
!mf! G4- GGFE | CG G3 GFE | (DA) A3 DCD | (CB,) B,6 :: B4- BAGA | G8 | A4- AFGA | G4 F4 :: %8
w: Nic, * nie mu- sisz|mó- wić nic. Od- po- cznij|we * mnie, czuj się bez|pie- * cznie.|Po- * zwól ko- chać|się.|Mi- * łość pra- gnie|Cie- bie.|
 G2 G G2 GFE | G2 G G2 GFE | D2 D D2 DCD | G4 F2 z2 :: G4- GGFE | CG G3 GFE | D(A A3) DCD | %15
w: Nic nie mu- sisz mó,- wić,|nic nie mu- sisz mó- wić,|nic, nie mu- sisz mó- wić|ni- c.|Nic, * nie mu- sisz|mó- wić nic. Od- po- cznij|we * mnie, czuj się be-|
 (CB,) B,6 | G4- GGFE | CG G3 GFE | (DA) A3 DCD | (CB,) B,6 | B4- BAGF- | F G7 | F8 | G4 F4 | %24
w: pie- * cznie.|Nic, * nie mu- sisz|mó- wić nic. Od- po- cznij|we * mnie, czuj się be-|zpie- * cznie.|Po- * zwól ko- chąć|* się-|.|Cie- bie.|
 B4- BAGF- | F G7 | A4- AFGA | G4 F4 | G4- GGFE | CG G3 GFE | (DA) A3 DCD | (CB,) B,6 | G4- GGFE | %33
w: Po- * zwól ko- *||Mi- * łość pra- gnie|Cie- bie.|Nic, * nie mu- sisz|mó- wić nic. Od- po- cznij|we * mnie, czuj się be-|zpie- * cznie.|Nic, * nie mu- sisz|
 CG G3 GFE | (DA) A3 DCD | (C!>(!B,) B,6!>)! |!mp! G2 G G2 GFE | G2 G G2 GFE | A3 A AGFA | %39
w: mó- wić nic. Od- po- cznij|we * mnie, czuj się be-|zpie- * cznie.|Nic nie mu- sisz mó- wić,|nic nie mu- sisz mó- wić,|nic, nie mu- sisz mó- wić|
 G2 G F2 GFE | G2 G G2 GFE | G2 G G2 GFE | A3 A AGFA | B2 B A2 BAB | B2 B B2 AGA | B2 z2 z4 | %46
w: Nic nie mu- sisz mó,- wić,|Nic nie mu- sisz mó- wić,|nic nie mu- sisz mó- wić,|nic nie mu- sisz mó- wić,|nic nie mu- sisz mó- wić,|nic, nie mu- sisz mó- wić|nic.|
 A3 A AGFA | B3 c/B/ A2 z2 |!mf! B2 B B2 AGE | B2 B B2 ABA |!>(! A3 A AGFA | B3 c/B/ A2 z2!>)! |: %52
w: nic, nie mu- sisz mó- wić|ni- * * c.|Nic nie mu- sisz mó- wić,|nic nie mu- sisz mó- wić,|nic, nie mu- sisz mó- wić|ni- * * c.|
!pp! G4- GGFE | CG G3 GFE | (DA) A3 DCD | (CB,) B,6 :| G2 z2 z4 | G2 z2 z4 | A8 | G3 A/G/ F4 | z8 | %61
w: Nic, * nie mu- sisz|mó- wić nic. Od- po- cznij|we * mnie, czuj się be-|zpie- * cznie.|Nic.|Nic.|Ni-|* * * c.||
 z8 | z8 | z8 | z8 |] %65
w: ||||
V:2
 z8 | z8 | z8 | z8 ::!mf! B,4- B,B,B,B, | C8 | D4- DDCD | B,4 z4 :: G4- GGFE | CG G3 GFE | %10
w: ||||Po- * zwól ko- chać|się.|Mi- * ość pra- gnie|Cię.|Nic, * nie mu- sisz|mó- wić nic. Od- po- cznij|
 (DA) A3 DCD | (CB,) B,6 :: B4- BAGA | G8 | A4- AFGA | G4 F4 | B4- BAGA | G8 | A4- AFGA | G4 F4 | %20
w: we * mnie, czuj się be-|zpie- * cznie.|Po- * zwól ko- chać|się.|Mi- * łość pra- gnie|Cie- bie.|Po- * zwól ko- chać|się.|Mi- * łość pra- gnie|Cie- bie.|
!f! G4- GBAG | FA A3 BAG | (GA) A3 GFG | (BA) A6 | G4- GBAG | FA A3 BAG | (GA) A3 GFG | (B A7) | %28
w: Nic, * nie mu- sisz|mó- wić nic. Od- po- cznij|we * mnie, czuj się be-|zpie- * cznie.|Nic, * nie mu- sisz|* wić nic. * * *|we * mnie, czuj * *||
 B4- BAGA | G8 | A4- AFGA | B3 c/B/ A4 | B4- BAGA | G8 | A4- AFGA | G3!>(! A/B/ A4!>)! | %36
w: Po- * zwól ko- chać|się.|Mi- * łość pra- gnie|Cie- * * bie.|Po- * zwól ko- chać|się.|Mi- * łość pra- gnie|Cie- * * bie.|
!mp! G2 G G2 GFE | G2 G G2 GFE | D2 D D2 DCD | G4 F2 z2 |!p! G4- GGFE | CG G3 GFE | (DA) A3 DCD | %43
w: Nic nie mu- sisz mó- wić,|nic nie mu- sisz mó- wić,|nic, nie mu- sisz mó- wić|ni- c.|Nic, * nie mu- sisz|mó- wić nic. Od- po- cznij|we * mnie, czuj się be-|
 (CB,) B,6 | B4- BAGA | G8 | A4- AFGA | G4 F4 |!mf! B4- BAGA | G8 |!>(! A4- AFGA | G4 F4!>)! |: %52
w: zpie- * cznie.|Po- * zwól ko- chać|się.|Mi- * łość pra- gnie|Cie- bie.|Po- * zwól ko- chać|się.|Mi- * łość pra- gnie|Cie- bie.|
!pp! G4- GGFE | CG G3 GFE | (DA) A3 DCD | (CB,) B,6 :| z8 | z8 | z8 | z8 | z2 G>F E4 | z2 G>F E4 | %62
w: Nic, * nie mu- sisz|mó- wić nic. Od- po- cznij|we * mnie, czuj się be-|zpie- * cznie.|||||Ni- * c.|Ni- * c.|
 z2 F6 | G4 F4 | !fermata!E8 |] %65
w: Ni-||c.|
V:3
 z8 | z8 | z8 | z8 :: z8 | z8 | z8 | z8 ::!mf! G2 G G2 GFE | G2 G G2 GFE | D2 D D2 DCD | %11
w: ||||||||Nic nie mu- sisz mó,- wić,|nic nie mu- sisz mó- wić,|nic, nie mu- sisz mó- wić|
 G4 F2 z2 :: G4- GGFE | CG G3 GFE | (DA) A3 DCD | (CB,) B,6 | B,4- B,B,A,G, | G,B, B,3 B,A,G, | %18
w: ni- c.|Nic, * nie mu- sisz|mó- wić nic. Od- po- cznij|we * mnie, czuj się be-|pie- * cznie.|Nic, * nie mu- sisz|mó- wić nic. Od- po- cznij|
 (A,D) D3 DCD | (CB,) B,6 | B4- BAGF- | F G7 | D4- DDCD | B,4 z4 | B,4- B,B,B,B,- | B, C7 | %26
w: we * mnie, czuj się be-|zpie- * cznie.|Po- * zwól ko- chać|* si,ę.|Mi- * ość pra- gnie|Cię.|Po- * zwól ko- chać|* się.|
 D4- DDCD | G4 F4 | G2 G G2 GFE | G2 G G2 GFE | D2 D D2 DCD | G4 F2 z2 | G2 G G2 GFE | %33
w: Mi- * ość pra- gnie|Cie- bie.|Nic nie mu- sisz mó,- wić,|nic nie mu- sisz mó- wić,|nic, nie mu- sisz mó- wić|ni- c.|Nic nie mu- sisz mó- wić,|
 G2 G G2 GFE | D2 D D2 DCD |!>(! G4 F2 z2!>)! |!mp! B,2 B, B,2 B,B,B, | C2 C C2 CCC | D3 D DDCD | %39
w: nic nie mu- sisz mó- wić,|nic, nie mu- sisz mó- wić|ni- c.|Nic nie mu- sisz mó- wić,|Nic nie mu- sisz mó- wić,|nic, nie mu- sisz mó- wić|
 E8 | G2 G F2 GFE | G2 G F2 GFE | D3 D DDCD | G8 | G2 G F2 GFE | G2 G F2 GFE | D3 D DDCD | G8 | %48
w: nic.|Nic nie mu- sisz mó- wić,|Nic nie mu- sisz mó,- wić,|nic, nie mu- sisz mó- wić|nic.|Nic nie mu- sisz mó- wić,|Nic nie mu- sisz mó- wić,|nic, nie mu- sisz mó- wić|nic.|
!mf! B2 B B2 AGE | B2 B B2 ABA |!>(! F3 F FFFF | E8!>)! |:!pp! G4- GGFE | CG G3 GFE | (DA) A3 DCD | %55
w: Nic nie mu- sisz mó- wić,|nic nie mu- sisz mó- wić,|nic, nie mu- sisz mó- wić|nic.|Nic, * nie mu- sisz|mó- wić nic. Od- po- cznij|we * mnie, czuj się be-|
 (CB,) B,6 :| z8 | z8 | z8 | z8 | z8 | z8 | z8 | z8 | z8 |] %65
w: zpie- * cznie.||||||||||
V:4
 z8 | z8 | z8 | z8 :: z8 | z8 | z8 | z8 ::!mf! B,4- B,B,A,G, | G,B, B,3 B,A,G, | (A,D) D3 DCD | %11
w: ||||||||Nic, * nie mu- sisz|mó- wić nic. Od- po- cznij|we * mnie, czuj się be-|
 (CB,) B,6 :: B4- BAGA | C8 | A4- AFGA | G4 F4 | B,4- B,B,B,B, | C8 | D4- DDCD | B,4 z4 | %20
w: zpie- * cznie.|Po- * zwól ko- chać|się.|Mi- * łość pra- gnie|Cie- bie.|Po- * zwól ko- chać|się.|Mi- * ość pra- gnie|Cię.|
 G4- GBAG | FA A3 BAG | (GA) A3 DCD | (DD) D6 | G,4- G,G,G,G, | A,A, A,3 B,B,B, | (G,D) D3 G,G,G, | %27
w: Nic, * nie mu- sisz|* wić nic. Od- po- cznij|we * mnie, czuj się be-|zpie- * cznie.|* * * * sisz|mó- * * * * cznij|we * mnie, * * *|
 (D C7) | B4- BAGA | G8 | A4- AFGA | G4 F4 | B,4- B,B,B,B, | C8 | D4- DDCD |!>(! G4 F4!>)! | %36
w: zpie- *|Po- * zwól ko- chać|się.|Mi- * łość pra- gnie|Cie- bie.|Po- * zwól ko- chać|się.|Mi- * ość pra- gnie|Cie- bie.|
!mp! B,2 B, B,2 B,B,B, | C2 C C2 CCC | F3 F FFFF | E8 | B,2 B, B,2 B,B,B, | C2 C C2 CCC | %42
w: Nic nie mu- sisz mó- wić,|Nic nie mu- sisz mó- wić,|nic, nie mu- sisz mó- wić|nic.|Nic nie mu- sisz mó- wić,|Nic nie mu- sisz mó,- wić,|
 F3 F FFFF | E8 | B,2 B, B,2 B,B,B, | C2 C C2 CCC | F3 F FFFF | E8 |!mf! B,2 B, B,2 A,G,E, | %49
w: nic, nie mu- sisz mó- wić|nic.|Nic nie mu- sisz mó- wić,|Nic nie mu- sisz mó- wić,|nic, nie mu- sisz mó- wić|nic.|Nic nie mu- sisz mó- wić,|
 B,2 B, B,2 A,B,A, |!>(! A,3 A, A,G,F,A, | B,3 C/B,/ A,2 z2!>)! |:!pp! G4- GGFE | CG G3 GFE | %54
w: nic nie mu- sisz mó- wić,|nic, nie mu- sisz mó- wić|ni- * * c.|Nic, * nie mu- sisz|mó- wić nic. Od- po- cznij|
 (DA) A3 DCD | (CB,) B,6 :| z8 | z8 | z8 | z8 | z8 | z8 | z8 | z8 | z8 |] %65
w: we * mnie, czuj się be-|zpie- * cznie.||||||||||

